X: 1117
T: Hüsn Âlemini Tuttu...
C: Hacı Ârif Bey
O: Turkey
F: http://compmusic.upf.edu/node/140
N: suzinak-zirgule--sarki--yuruksemai--husn_alemini--haci_arif_bey
N: makam= suzinak-zirgule
N: form= sarki
N: usul= yuruksemai = 6/8
M: 6/8
L: 1/16
K: C _1/4B _7/8e _7/8A ^f
Q: 1/4=108
%%MIDI tuningsystem comma53
g4f4 e4d3e .f4z4  | f4e4 d4c3d .e4z4  | \
w:  ARANAĞME  |   | 
e4d4 c4B4 A4G4  | d2e2d2c2 B2A2B2c2 .d4.e2.f2  | 
w:   |   | 
g4f4 e4d3e .f4z4  | f4e4 d4c3d .e4z4  | \
w:  ARANAĞME  |   | 
e4d4 c4B4 A4G4  | d2e2d2c2 B2A2G4 c4{d}c2d2  | 
w:   |  *  *  *  *  *  *  *  Hüsn_  | 
d8 e2g2f2e2 d4{e}d2{e}c2  | c4{d}c2{d}B2 B2A2A2G2 G8  | \
w:  â le *  mi *  ni   |  tut *  *  *  *  tu  *  se *  nin   | 
f4e2d2 =a2g2g2f2 f4e2d2  | 
w:  şöh *  *  ret_ *  ü  *  şâ  | 
d8 B2A2.G4 c4{d}c2d2  | d8 e2g2f2e2 d4{e}d2{e}c2  | \
w:  nın   SAZ *  *  Hüsn_  |  â le *  mi *  ni   | 
c4{d}c2{d}B2 B2A2A2G2 G8  | 
w:  tut *  *  *  *  tu  *  se *  nin   | 
f4e2d2 =a2g2g2f2 f4e2d2  | d12z4 d3ed2e2  | \
w:  şöh *  *  ret_ *  ü  *  şâ  |  nın   Sul  | 
f4g4 b2a2a2g2 g4g2f2  | 
w:  tâ *  nı *  sın  *  ey   | 
f4{g}f2{g}e2 e4e2d2 e3dc4  | d4{e}d2{e}c2 f4e2d2 e3dc2B2  | \
w:  rûh_ *  *  *  *  i  re *  vân   |  kiş *  *  *  *  ver_ i  *  â  | 
c12B2A2 G4{A}G2A2  | 
w:  nın   *  *  Sul  | 
B4c4 d4f2e2 d4{e}d2{e}c2  | c4{d}c2{d}B2 B2A2A2G2 G6z2  | \
w:  tâ *  nı sın  *  ey   |  rûh_ *  *  *  *  i  *  re *  vân   | 
d4d2c2 B4c4 B2{c}A2{B}A2G2  | 
w:  kiş *  *  ver_ i  â  | 
G8 .g.=f._2/4e.fg4 f3gf2g2  | g8 g4=f2=a2 g6z2  | \
w:  nın   SAZ *  *  *  *  Dil  |  ler de  ga *  mın   | 
=f6g2 f2_2/4e2_3/4e2d2 d3_7/8ed2{e}c2  | 
w:  sî *  ne *  ler *  üs  | 
=a2g2a2g2 g2=f2g2f2 _3/4e3dc4  | =f4g4 cd_2/4efg4 f3gf2g2  | 
w:  tün *  *  *  de  *  ni *  şâ  |  nın   *  SAZ *  *  *  *  Dil  | 
g8 g4=f2=a2 g6z2  | =f6g2 f2_2/4e2_3/4e2d2 d3_7/8ed2{e}c2  | \
w:  ler de  ga *  mın   |  sî *  ne *  ler *  üs  | 
=a2g2a2g2 g2f2g2f2 f4e2d2  | 
w:  tün *  *  *  de  *  ni *  şâ  | 
d16 d3ed2e2  | f4g4 b2a2a2g2 g4g2f2  | \
w:  nın   Sul  |  tâ *  nı *  sın  *  ey   | 
f4{g}f2{g}e2 e4e2d2 e3dc4  | 
w:  rûh_ *  *  *  *  i  re *  vân   | 
d4{e}d2{e}c2 f4e2d2 e3dc2B2  | c12B2A2 G4{A}G2A2  | \
w:  kiş *  *  *  *  ver_ i  *  â  |  nın   *  *  Sul  | 
B4c4 d4f2e2 d4{e}d2{e}c2  | 
w:  tâ *  nı sın  *  ey   | 
c4{d}c2{d}B2 B2A2A2G2 G6z2  | d4d2c2 B4c4 B2{c}A2{B}A2G2  | \
w:  rûh_ *  *  *  *  i  *  re *  vân   |  kiş *  *  ver_ i  â  | 
G8 |
w:  nın    | 


